public/avatar/shoe/71.svg

<svg xmlns:xlink="http://www.w3.org/1999/xlink" height="38.3" width="36.05" xmlns="http://www.w3.org/2000/svg"><use height="15.95" transform="translate(8.7 12.05)" width="23" xlink:href="#a"/><defs><g id="a"><path d="M7.35 7.85 2.8 10.8l-7.15 1.55-4.75.3-4.2-.8-.95-.75-.3-2 8.3 1.3 11.3-3.7 2.1-2 .2 3.15" fill="#fff" fill-rule="evenodd" transform="translate(15.1 2.8)"/><path d="m19.4 1.55 3.1 6.55v.5l.05.45v.7h-.05v.45l-.05.15v.15l-.05.05v.2l-1.35 1.05-1.8 1-.55.2h-.15l-.05.05-.1.05-3.85 1.35-4.3.85-3.25.2-2.85-.2-2.6-.7-.5-.3-.25-.25-.05-.25v-.2l-.1-.65-.1-.9-.1-.55.05-.4.25-.75.55-.85.45-.45.9-1.05L8.2 2.85l1.85-1.25L11.4 1l.65-.25 2.2-.3 2.95.3 1.3.35.9.45Z" fill="none" stroke="#454545" stroke-linecap="round" stroke-linejoin="round" stroke-width=".95"/><path d="M.65-1.95q1.95.25 3.2 1.1L5.45 2Q7.1 5.15 6.9 6.45 5.7 8.15-1.7 10q-8.4 2.05-12.2-.2-.7-1.4 1.2-3.65l6.05-5.6q3.45-2.9 7.3-2.5" fill-rule="evenodd" transform="translate(15.1 2.8)"/><path d="M-4.55 10.75q-.6.65-3.4.55-2.95-.05-5.1-.85-1.6-.65-.85-2.45.6-1.5 1.8-2.45.5-.9 4.45.85 4.05 1.75 3.1 4.35M.1 4.05Q-1.3 6-5 5.7q-3.65-2.3-5.9-1.45L-6.7.5q1.15.1 1.85.45 1.4.6 2.75 1.5l2.2 1.6" fill="#fff" fill-rule="evenodd" transform="translate(15.1 2.8)"/><path d="m-6.7.5.3-.3q1.3-.95 2-1.05Q1.65-.1.6 3L.1 4.05l-2.2-1.6q-1.35-.9-2.75-1.5Q-5.55.6-6.7.5" fill="#ccc" fill-rule="evenodd" transform="translate(15.1 2.8)"/><path d="m3 8.65-5.45 1.55q-.1-3.3 2.8-4.85.7-.45 1.2-.45l-.25.05.65.8.55 1.6.5 1.3" fill="#ff3e37" fill-rule="evenodd" transform="translate(15.1 2.8)"/><path d="m3 8.65-.5-1.3-.55-1.6-.65-.8.25-.05h.05l.45.05q.45.2.3.85l-.2.4.3-.2.05-.05Q5.15 4.1 5.75 5.2q.6 1.2-.85 2.3l-.85.7-.6.3-.45.15" fill="#ff0600" fill-rule="evenodd" transform="translate(15.1 2.8)"/><path d="M3.65 7.5q-4.3 2-4.3 1.2 0-.75.8-1.65.75-.9 1.05-.55.4.5.2 1.15.4.25 2.7-1.95 1.25.1-.45 1.8" fill-rule="evenodd" transform="translate(15.1 2.8)"/></g></defs></svg>

<?xml version="1.0" encoding="UTF-8" standalone="no"?>
<svg xmlns:xlink="http://www.w3.org/1999/xlink" height="38.3px" width="36.05px" xmlns="http://www.w3.org/2000/svg">
  <g transform="matrix(1.0, 0.0, 0.0, 1.0, 23.8, 14.85)">
    <use height="15.95" transform="matrix(1.0, 0.0, 0.0, 1.0, -15.1, -2.8)" width="23.0" xlink:href="#shape0"/>
  </g>
  <defs>
    <g id="shape0" transform="matrix(1.0, 0.0, 0.0, 1.0, 15.1, 2.8)">
      <path d="M7.35 7.85 L2.8 10.8 -4.35 12.35 -9.1 12.65 -13.3 11.85 -14.25 11.1 -14.55 9.1 -6.25 10.4 5.05 6.7 7.15 4.7 7.35 7.85" fill="#ffffff" fill-rule="evenodd" stroke="none"/>
      <path d="M4.3 -1.25 L7.4 5.3 7.4 5.8 7.45 6.25 7.45 6.95 7.4 6.95 7.4 7.4 7.35 7.55 7.35 7.7 7.3 7.75 7.3 7.95 5.95 9.0 4.15 10.0 3.6 10.2 3.45 10.2 3.4 10.25 3.3 10.3 -0.55 11.65 -4.85 12.5 -8.1 12.7 -10.95 12.5 -13.55 11.8 -14.05 11.5 -14.3 11.25 -14.35 11.0 -14.35 10.8 -14.45 10.15 -14.55 9.25 -14.65 8.7 -14.6 8.3 -14.35 7.55 -13.8 6.7 -13.35 6.25 -12.45 5.2 -6.9 0.05 -5.05 -1.2 -3.7 -1.8 -3.05 -2.05 -0.85 -2.35 2.1 -2.05 3.4 -1.7 4.3 -1.25 Z" fill="none" stroke="#454545" stroke-linecap="round" stroke-linejoin="round" stroke-width="0.9500000000000001"/>
      <path d="M0.65 -1.95 Q2.6 -1.7 3.85 -0.85 L5.45 2.0 Q7.1 5.15 6.9 6.45 5.7 8.15 -1.7 10.0 -10.1 12.05 -13.9 9.8 -14.6 8.4 -12.7 6.15 L-6.65 0.55 Q-3.2 -2.35 0.65 -1.95" fill="#000000" fill-rule="evenodd" stroke="none"/>
      <path d="M-4.55 10.75 Q-5.15 11.4 -7.95 11.3 -10.9 11.25 -13.05 10.45 -14.65 9.8 -13.9 8.0 -13.3 6.5 -12.1 5.55 -11.6 4.65 -7.65 6.4 -3.6 8.15 -4.55 10.75" fill="#ffffff" fill-rule="evenodd" stroke="none"/>
      <path d="M0.1 4.05 Q-1.3 6.0 -5.0 5.7 -8.65 3.4 -10.9 4.25 L-6.7 0.5 Q-5.55 0.6 -4.85 0.95 -3.45 1.55 -2.1 2.45 L0.1 4.05" fill="#ffffff" fill-rule="evenodd" stroke="none"/>
      <path d="M-6.7 0.5 L-6.4 0.2 Q-5.1 -0.75 -4.4 -0.85 1.65 -0.1 0.6 3.0 L0.1 4.05 -2.1 2.45 Q-3.45 1.55 -4.85 0.95 -5.55 0.6 -6.7 0.5" fill="#cccccc" fill-rule="evenodd" stroke="none"/>
      <path d="M3.0 8.65 L-2.45 10.2 Q-2.55 6.9 0.35 5.35 1.05 4.9 1.55 4.9 L1.3 4.95 1.95 5.75 2.5 7.35 3.0 8.65" fill="#ff3e37" fill-rule="evenodd" stroke="none"/>
      <path d="M3.0 8.65 L2.5 7.35 1.95 5.75 1.3 4.95 1.55 4.9 1.6 4.9 2.05 4.95 Q2.5 5.15 2.35 5.8 L2.15 6.2 2.45 6.0 2.5 5.95 Q5.15 4.1 5.75 5.2 6.35 6.4 4.9 7.5 L4.05 8.2 3.45 8.5 3.0 8.65" fill="#ff0600" fill-rule="evenodd" stroke="none"/>
      <path d="M3.65 7.5 Q-0.65 9.5 -0.65 8.7 -0.65 7.95 0.15 7.05 0.9 6.15 1.2 6.5 1.6 7.0 1.4 7.65 1.8 7.9 4.1 5.7 5.35 5.8 3.65 7.5" fill="#000000" fill-rule="evenodd" stroke="none"/>
    </g>
  </defs>
</svg>
